test-preset.xmp
<?xml version="1.0" encoding="UTF-8"?>
<x:xmpmeta xmlns:x="adobe:ns:meta/" x:xmptk="Adobe XMP Core 7.0-c000 1.000000, 0000/00/00-00:00:00">
  <rdf:RDF xmlns:rdf="http://www.w3.org/1999/02/22-rdf-syntax-ns#">
    <rdf:Description rdf:about=""
      xmlns:crs="http://ns.adobe.com/camera-raw-settings/1.0/"
      xmlns:dc="http://purl.org/dc/elements/1.1/">

      <dc:title>
        <rdf:Alt>
          <rdf:li xml:lang="x-default">Warm Vintage Test</rdf:li>
        </rdf:Alt>
      </dc:title>

      <crs:Version>15.3</crs:Version>
      <crs:ProcessVersion>11.0</crs:ProcessVersion>

      <!-- Basic Adjustments -->
      <crs:Exposure2012>+0.5</crs:Exposure2012>
      <crs:Contrast2012>+15</crs:Contrast2012>
      <crs:Highlights2012>-20</crs:Highlights2012>
      <crs:Shadows2012>+30</crs:Shadows2012>
      <crs:Whites2012>+10</crs:Whites2012>
      <crs:Blacks2012>-15</crs:Blacks2012>

      <!-- Presence -->
      <crs:Clarity2012>+20</crs:Clarity2012>
      <crs:Vibrance>+15</crs:Vibrance>
      <crs:Saturation>-10</crs:Saturation>

      <!-- Color -->
      <crs:Temperature>6500</crs:Temperature>
      <crs:Tint>+10</crs:Tint>

      <!-- Effects -->
      <crs:Dehaze>+10</crs:Dehaze>
      <crs:GrainAmount>20</crs:GrainAmount>
      <crs:PostCropVignetteAmount>-25</crs:PostCropVignetteAmount>

      <!-- Tone Curve -->
      <crs:ToneCurveName2012>Medium Contrast</crs:ToneCurveName2012>
      <crs:ToneCurvePV2012>
        <rdf:Seq>
          <rdf:li>0, 0</rdf:li>
          <rdf:li>64, 60</rdf:li>
          <rdf:li>128, 128</rdf:li>
          <rdf:li>192, 196</rdf:li>
          <rdf:li>255, 255</rdf:li>
        </rdf:Seq>
      </crs:ToneCurvePV2012>

      <!-- HSL Adjustments -->
      <crs:HueAdjustmentRed>+10</crs:HueAdjustmentRed>
      <crs:HueAdjustmentOrange>+5</crs:HueAdjustmentOrange>
      <crs:SaturationAdjustmentRed>-15</crs:SaturationAdjustmentRed>
      <crs:SaturationAdjustmentOrange>+10</crs:SaturationAdjustmentOrange>
      <crs:LuminanceAdjustmentRed>+5</crs:LuminanceAdjustmentRed>
      <crs:LuminanceAdjustmentOrange>+10</crs:LuminanceAdjustmentOrange>
    </rdf:Description>
  </rdf:RDF>
</x:xmpmeta>
